Setup/v9/Assets/Themes/Kobe - Light/Print.svg

<svg width="20" height="20" viewBox="0 0 20 20" fill="none" xmlns="http://www.w3.org/2000/svg">
<path fill-rule="evenodd" clip-rule="evenodd" d="M6 1.5C5.17157 1.5 4.5 2.17157 4.5 3V3.5H3C1.61929 3.5 0.5 4.61929 0.5 6V12C0.5 13.3807 1.61929 14.5 3 14.5H4V16C4 17.3807 5.11929 18.5 6.5 18.5H13.5C14.8807 18.5 16 17.3807 16 16V14.5H17C18.3807 14.5 19.5 13.3807 19.5 12V6C19.5 4.61929 18.3807 3.5 17 3.5H15.5V3C15.5 2.17157 14.8284 1.5 14 1.5H6ZM14.5 3.5V3C14.5 2.72386 14.2761 2.5 14 2.5H6C5.72386 2.5 5.5 2.72386 5.5 3V3.5H14.5ZM17 13.5H16V11C16 9.61929 14.8807 8.5 13.5 8.5H6.5C5.11929 8.5 4 9.61929 4 11V13.5H3C2.17157 13.5 1.5 12.8284 1.5 12V6C1.5 5.17157 2.17157 4.5 3 4.5H17C17.8284 4.5 18.5 5.17157 18.5 6V12C18.5 12.8284 17.8284 13.5 17 13.5ZM6.5 9.5C5.67157 9.5 5 10.1716 5 11V16C5 16.8284 5.67157 17.5 6.5 17.5H13.5C14.3284 17.5 15 16.8284 15 16V11C15 10.1716 14.3284 9.5 13.5 9.5H6.5ZM6.5 12C6.5 11.7239 6.72386 11.5 7 11.5H13C13.2761 11.5 13.5 11.7239 13.5 12C13.5 12.2761 13.2761 12.5 13 12.5H7C6.72386 12.5 6.5 12.2761 6.5 12ZM7 14.5C6.72386 14.5 6.5 14.7239 6.5 15C6.5 15.2761 6.72386 15.5 7 15.5H13C13.2761 15.5 13.5 15.2761 13.5 15C13.5 14.7239 13.2761 14.5 13 14.5H7Z" fill="black"/>
</svg>

<svg xmlns="http://www.w3.org/2000/svg" width="20" height="20" fill="none"><path fill="#000" fill-rule="evenodd" d="M6 1.5A1.5 1.5 0 0 0 4.5 3v.5H3A2.5 2.5 0 0 0 .5 6v6A2.5 2.5 0 0 0 3 14.5h1V16a2.5 2.5 0 0 0 2.5 2.5h7A2.5 2.5 0 0 0 16 16v-1.5h1a2.5 2.5 0 0 0 2.5-2.5V6A2.5 2.5 0 0 0 17 3.5h-1.5V3A1.5 1.5 0 0 0 14 1.5H6Zm8.5 2V3a.5.5 0 0 0-.5-.5H6a.5.5 0 0 0-.5.5v.5h9Zm2.5 10h-1V11a2.5 2.5 0 0 0-2.5-2.5h-7A2.5 2.5 0 0 0 4 11v2.5H3A1.5 1.5 0 0 1 1.5 12V6A1.5 1.5 0 0 1 3 4.5h14A1.5 1.5 0 0 1 18.5 6v6a1.5 1.5 0 0 1-1.5 1.5Zm-10.5-4A1.5 1.5 0 0 0 5 11v5a1.5 1.5 0 0 0 1.5 1.5h7A1.5 1.5 0 0 0 15 16v-5a1.5 1.5 0 0 0-1.5-1.5h-7Zm0 2.5a.5.5 0 0 1 .5-.5h6a.5.5 0 0 1 0 1H7a.5.5 0 0 1-.5-.5Zm.5 2.5a.5.5 0 0 0 0 1h6a.5.5 0 0 0 0-1H7Z" clip-rule="evenodd"/></svg>
